X:1     %Music
T:Lancashire Cross Morris
B:Journal of the English Folk Dance Society, 1928, Oxford University Press, London
Z:Anne G Gilchrist
S:Possibly Smith Williamson
Q:1/4=80
M:2/4     %Meter
L:1/16     %
K:F
c3/2B/ (3:2AGF c3/2B/ (3:2AGF |c3/2B/ (3:2AGF d2f2 :|c3/2B/ (3:2AGF c3/2B/ (3:2AGF |c3/2B/ (3:2AGF d2f2 |
c3/2B/ (3:2AGF d2f2 |c3/2B/ (3:2AGF d2f2 |: c3/2d/e3/2f/ g3/2f/e3/2d/ |c3/2d/e3/2c/ f2f2 :|